!!!ONR: No. 40
!! From Harold Courlander, "Haiti Singing"
!! Chapel Hill: University of North Carolina Press, 1939
!! Copyright University of North Carolina Press
!!!ENC: D. Huron
**kern
*clefG2
*k[]
*M2/4
=1-
8r
8g
8g
8g
=
8g
8g
4g
=
8b
4dd
8b
=
4b
8g
8b
=
8dd
8dd
8cc#
8cc#
=
16b
8b
16g
4g
=
4r
8g
8b
=
8dd
8dd
8ccn
8cc
=
8a
8a
8f#
8f#
=
8d
8d
8g
8b
=
8cc
8ee
8dd
8dd
=
[2b
=
2b]
==
*-
